dist/icons/lyne-service-bell-medium.svg

<svg width="36" height="36" viewBox="0 0 36 36" fill="none" xmlns="http://www.w3.org/2000/svg">
<path fill-rule="evenodd" clip-rule="evenodd" d="M19.47 7.24955H16.47V6.24955H19.47V7.24955ZM10.3469 13.2448C12.0732 10.8716 14.6526 9.24955 18 9.24955C21.3476 9.24955 23.9233 10.8718 25.6476 13.245C27.3634 15.6064 28.2423 18.7131 28.25 21.7483L28.2513 22.2496H27.75H8.24999H7.74999V21.7496C7.74999 18.7135 8.62912 15.6063 10.3469 13.2448ZM8.75844 21.2496H27.2403C27.1431 18.5555 26.3198 15.8713 24.8386 13.8328C23.2742 11.6798 20.9824 10.2496 18 10.2496C15.0174 10.2496 12.7218 11.68 11.1556 13.8331C9.67263 15.8717 8.84936 18.5559 8.75844 21.2496ZM8.03992 24.2496H7.6784L7.56511 24.5929L6.57511 27.5929L6.3584 28.2496H7.04992H28.9499H29.6447L29.424 27.5907L28.419 24.5907L28.3047 24.2496H27.9449H8.03992ZM7.74144 27.2496L8.40144 25.2496H27.5851L28.2551 27.2496H7.74144Z" fill="black"/>
</svg>

<svg width="36" height="36" xmlns="http://www.w3.org/2000/svg"><path fill-rule="evenodd" clip-rule="evenodd" d="m19.47,7.25h-3v-1h3v1zm-9.12,6C12.07,10.87,14.65,9.25,18,9.25c3.35,0,5.92,1.62,7.65,4,1.72,2.36,2.59,5.47,2.6,8.5l0,.5H7.75v-.5c0-3.04.88-6.14,2.6-8.5zm-1.59,8H27.24c-.1-2.69-.92-5.38-2.4-7.42-1.56-2.15-3.86-3.58-6.84-3.58-2.98,0-5.28,1.43-6.84,3.58-1.48,2.04-2.31,4.72-2.4,7.42zm-.72,3H7.68l-1.32,4h23.29l-1.34-4H8.04zm-.3,3,.66-2H27.59l.67,2H7.74z"/></svg>
